storage/app/icons/phosphoricons/thin/calendar-minus-thin.svg

<svg xmlns="http://www.w3.org/2000/svg" fill="currentColor" viewBox="0 0 256 256"><path d="M208 36h-28V24a4 4 0 0 0-8 0v12H84V24a4 4 0 0 0-8 0v12H48a12 12 0 0 0-12 12v160a12 12 0 0 0 12 12h160a12 12 0 0 0 12-12V48a12 12 0 0 0-12-12M48 44h28v12a4 4 0 0 0 8 0V44h88v12a4 4 0 0 0 8 0V44h28a4 4 0 0 1 4 4v36H44V48a4 4 0 0 1 4-4m160 168H48a4 4 0 0 1-4-4V92h168v116a4 4 0 0 1-4 4m-52-60a4 4 0 0 1-4 4h-48a4 4 0 0 1 0-8h48a4 4 0 0 1 4 4"/></svg>

<svg xmlns="http://www.w3.org/2000/svg" viewBox="0 0 256 256" fill="currentColor"><path d="M208,36H180V24a4,4,0,0,0-8,0V36H84V24a4,4,0,0,0-8,0V36H48A12,12,0,0,0,36,48V208a12,12,0,0,0,12,12H208a12,12,0,0,0,12-12V48A12,12,0,0,0,208,36ZM48,44H76V56a4,4,0,0,0,8,0V44h88V56a4,4,0,0,0,8,0V44h28a4,4,0,0,1,4,4V84H44V48A4,4,0,0,1,48,44ZM208,212H48a4,4,0,0,1-4-4V92H212V208A4,4,0,0,1,208,212Zm-52-60a4,4,0,0,1-4,4H104a4,4,0,0,1,0-8h48A4,4,0,0,1,156,152Z"/></svg>
